Dominus_Dark_Funeral/22/categories/applications-fonts.svg

<svg xmlns="http://www.w3.org/2000/svg" width="24" height="24" version="1"><path d="M11.26 2.17h1.44v19.9h-1.44zM6.8 14.54l-4.3 7.53h1.66l3.69-6.48.92.92v5.56h1.43V2.17l-7.89 7.89zm1.97-.06l-4.43-4.42 4.43-4.42zm12.88-4.42l-7.89-7.9v19.9h1.44v-5.55l.92-.92 3.69 6.48h1.65l-4.29-7.53zm-6.45 4.42V5.64l4.42 4.42z" fill="#e6e6e6"/></svg>

<?xml version="1.0" encoding="UTF-8" standalone="no"?>
<svg
   xmlns:dc="http://purl.org/dc/elements/1.1/"
   xmlns:cc="http://creativecommons.org/ns#"
   xmlns:rdf="http://www.w3.org/1999/02/22-rdf-syntax-ns#"
   xmlns:svg="http://www.w3.org/2000/svg"
   xmlns="http://www.w3.org/2000/svg"
   xmlns:sodipodi="http://sodipodi.sourceforge.net/DTD/sodipodi-0.dtd"
   xmlns:inkscape="http://www.inkscape.org/namespaces/inkscape"
   width="24"
   height="24"
   version="1"
   id="svg4"
   sodipodi:docname="applications-fonts.svg"
   inkscape:version="0.92.4 (5da689c313, 2019-01-14)">
  <metadata
     id="metadata10">
    <rdf:RDF>
      <cc:Work
         rdf:about="">
        <dc:format>image/svg+xml</dc:format>
        <dc:type
           rdf:resource="http://purl.org/dc/dcmitype/StillImage" />
        <dc:title></dc:title>
      </cc:Work>
    </rdf:RDF>
  </metadata>
  <defs
     id="defs8" />
  <sodipodi:namedview
     pagecolor="#ffffff"
     bordercolor="#666666"
     borderopacity="1"
     objecttolerance="10"
     gridtolerance="10"
     guidetolerance="10"
     inkscape:pageopacity="0"
     inkscape:pageshadow="2"
     inkscape:window-width="1142"
     inkscape:window-height="480"
     id="namedview6"
     showgrid="false"
     inkscape:zoom="9.8333333"
     inkscape:cx="1.2711864"
     inkscape:cy="12"
     inkscape:window-x="0"
     inkscape:window-y="25"
     inkscape:window-maximized="0"
     inkscape:current-layer="svg4" />
  <path
     d="m 11.26,2.17 h 1.44 v 19.9 H 11.26 Z M 6.8,14.54 2.5,22.07 h 1.66 l 3.69,-6.48 0.92,0.92 v 5.56 H 10.2 V 2.17 L 2.31,10.06 Z M 8.77,14.48 4.34,10.06 8.77,5.64 Z m 12.88,-4.42 -7.89,-7.9 v 19.9 h 1.44 v -5.55 l 0.92,-0.92 3.69,6.48 h 1.65 L 17.17,14.54 Z M 15.2,14.48 V 5.64 l 4.42,4.42 z"
     id="path2"
     inkscape:connector-curvature="0"
     style="fill:#e6e6e6" />
</svg>
